shader_type canvas_item;

uniform vec2 player_torch_pos = vec2(0.0, 0.0);
uniform float candela = 0.0;

void vertex() {
	// Called for every vertex the material is visible on.
}

void fragment() {
	// Called for every pixel the material is visible on.
}

void light() {
	// Called for every pixel for every light affecting the CanvasItem.
}
